packages/icons/svg/Outline/checkmark-square-2.svg

<svg width="24" height="24" viewBox="0 0 24 24" fill="none" xmlns="http://www.w3.org/2000/svg">
<g id="Icon/Outline/checkmark-square-2">
<path id="Mask" fill-rule="evenodd" clip-rule="evenodd" d="M19 12.8335C19 12.2815 19.448 11.8335 20 11.8335C20.552 11.8335 21 12.2815 21 12.8335V18.3995C21 19.8335 19.833 21.0005 18.4 21.0005H5.6C4.167 21.0005 3 19.8335 3 18.3995V5.60049C3 4.16649 4.167 3.00049 5.6 3.00049H15.167C15.719 3.00049 16.167 3.44749 16.167 4.00049C16.167 4.55249 15.719 5.00049 15.167 5.00049H5.6C5.269 5.00049 5 5.26949 5 5.60049V18.3995C5 18.7305 5.269 19.0005 5.6 19.0005H18.4C18.731 19.0005 19 18.7305 19 18.3995V12.8335ZM9.3096 10.9465C9.7096 10.5645 10.3416 10.5805 10.7236 10.9795L12.2286 12.5575L18.2816 6.30449C18.6646 5.90849 19.2976 5.89649 19.6956 6.28149C20.0926 6.66549 20.1026 7.29849 19.7186 7.69549L12.9416 14.6955C12.7536 14.8905 12.4946 15.0005 12.2236 15.0005H12.2196C11.9476 14.9995 11.6876 14.8875 11.4996 14.6905L9.2766 12.3605C8.8946 11.9605 8.9106 11.3275 9.3096 10.9465Z" fill="#000000"/>
</g>
</svg>

<svg fill="none" height="24" viewBox="0 0 24 24" width="24" xmlns="http://www.w3.org/2000/svg"><path clip-rule="evenodd" d="m19 12.8332c0-.552.448-1 1-1s1 .448 1 1v5.566c0 1.434-1.167 2.601-2.6 2.601h-12.8c-1.433 0-2.6-1.167-2.6-2.601v-12.79896c0-1.434 1.167-2.6 2.6-2.6h9.567c.552 0 1 .447 1 1 0 .552-.448 1-1 1h-9.567c-.331 0-.6.269-.6.6v12.79896c0 .331.269.601.6.601h12.8c.331 0 .6-.27.6-.601zm-9.6904-1.8868c.4-.382 1.032-.366 1.414.033l1.505 1.578 6.053-6.25299c.383-.396 1.016-.408 1.414-.023.397.384.407 1.017.023 1.414l-6.777 6.99999c-.188.195-.447.305-.718.305h-.004c-.272-.001-.532-.113-.72-.31l-2.223-2.33c-.382-.4-.366-1.033.033-1.414z" fill="#6b7280" fill-rule="evenodd"/></svg>
